X: 021633
T: Boys of Ballyscally
T: Buachaill\'i Bhaile U\'i Scalagh
S: B.Breathnach:"Ceol Rince na hEireann" IV/19 
Z: B.Black
L: 1/8
M: 6/8
R: jig
K: G
d/c/|BGG DGG|EGE DB,G,|CEG B,DG|EFG A2 d/c/|
BGG DGG|EGE DB,G,|CEG DGB|AFD G2 :|
B/c/|dgd ecA|dBG AFD|dgd eag|fef g2 f/g/|
afd gdB|ecA dBG|EFG Adc|BGG G2 :|
